src/assets/icons/small-cross.svg

<?xml version="1.0" encoding="UTF-8"?>
<svg width="8px" height="8px" viewBox="0 0 8 8" version="1.1" xmlns="http://www.w3.org/2000/svg" xmlns:xlink="http://www.w3.org/1999/xlink">
    <!-- Generator: Sketch 49 (51002) - http://www.bohemiancoding.com/sketch -->
    <title>icons/16/cross</title>
    <desc>Created with Sketch.</desc>
    <defs>
        <path d="M4,2.58578644 L6.29289322,0.292893219 C6.68341751,-0.0976310729 7.31658249,-0.0976310729 7.70710678,0.292893219 C8.09763107,0.683417511 8.09763107,1.31658249 7.70710678,1.70710678 L5.41421356,4 L7.70710678,6.29289322 C8.09763107,6.68341751 8.09763107,7.31658249 7.70710678,7.70710678 C7.31658249,8.09763107 6.68341751,8.09763107 6.29289322,7.70710678 L4,5.41421356 L1.70710678,7.70710678 C1.31658249,8.09763107 0.683417511,8.09763107 0.292893219,7.70710678 C-0.0976310729,7.31658249 -0.0976310729,6.68341751 0.292893219,6.29289322 L2.58578644,4 L0.292893219,1.70710678 C-0.0976310729,1.31658249 -0.0976310729,0.683417511 0.292893219,0.292893219 C0.683417511,-0.0976310729 1.31658249,-0.0976310729 1.70710678,0.292893219 L4,2.58578644 Z" id="path-1"></path>
    </defs>
    <g id="📦-symbols" stroke-width="1">
        <g id="icons/16/cross">
            <mask id="mask-2">
                <use xlink:href="#path-1"></use>
            </mask>
            <use id="Mask" xlink:href="#path-1"></use>
        </g>
    </g>
</svg>

<?xml version="1.0" encoding="utf-8"?>
<!-- Generator: Adobe Illustrator 22.0.1, SVG Export Plug-In . SVG Version: 6.00 Build 0)  -->
<svg version="1.1" id="Layer_1" xmlns="http://www.w3.org/2000/svg" xmlns:xlink="http://www.w3.org/1999/xlink" x="0px" y="0px"
	 viewBox="0 0 8 8" style="enable-background:new 0 0 8 8;" xml:space="preserve">
<title>icons/12/cross</title>
<desc>Created with Sketch.</desc>
<g id="icons_x2F_12_x2F_cross">
	<g id="Mask">
		<path id="path-1_1_" class="st0" d="M4,2.6l2.3-2.3c0.4-0.4,1-0.4,1.4,0s0.4,1,0,1.4L5.4,4l2.3,2.3c0.4,0.4,0.4,1,0,1.4
			s-1,0.4-1.4,0L4,5.4L1.7,7.7c-0.4,0.4-1,0.4-1.4,0s-0.4-1,0-1.4L2.6,4L0.3,1.7c-0.4-0.4-0.4-1,0-1.4s1-0.4,1.4,0L4,2.6z"/>
	</g>
</g>
</svg>
